X:1
T:Let us drink and be merry
T:George Berg (1763-1771)
%%score [ 1 2 3 ]
L:1/8
Q:1/4=80
M:3/4
K:A
V:1 treble nm="I"
V:2 treble nm="II"
V:3 treble nm="III"
V:1
|: A G | A2 E2 F2 | C2 A,2 C2 | D2 F2 D2 | E4 (cB) | c2 B2 A2 | F2 A2 d2 | (cd) (cB) (AG) | A4 :| %9
w: Let us|drink and be|mer- ry, dance,|joke, and re-|joice, With _|clar- et, ca-|na- ry, the|o- * boe _ and _|voice!|
V:2
|: (CB,) | C2 C2 D2 | E3 E =G2 | F2 (dc) (BA) | G4 A G | A2 G2 A2 | d2 c2 B2 | A3 B c B | c4 :| %9
w: The _|change- a- ble|world to our|joys is _ un- *|just, And all|pleas- ures are|end- ed when|we're _ in the|dust.|
V:3
|: E2 | E2 A2 A2 | (AB) c2 E2 | F2 A2 d2 | B4 E2 | A2 E2 F2 | D2 B,2 E2 | F3 D E2 | A4 :| %9
w: In|mirth let us|spend _ our spare|hours and our|pence, For|we shall be|past it a|hun- dred years|hence.|

